X:183
T:Trip Up Stairs. Ru1.183, A
%%VWML:RutherfordVol1-2248-p72-0p72
Z:Transcription by Village Music Project, Steve Mansfield July 2015
F:http://www.village-music-project.org.uk/
F:http://www.vwml.org/record/RutherfordVol1/2248/p72
L:1/8
W:The first Man sets to the second Woman and turns
W:her .| the first Woman does the same :| Cross over
W:quite round the second Couple .|. Gallop Down two
W:Couples up again foot it and cast off :|
Q:3/8=90
K:Bm
|:d2e f2d | e2c d2B | B2f fdB | BcB fdB |
d2e f2d | e2c d2B | A2e ecA | ABA ecA :|
|: d2g f/g/af | e/f/ge d/e/fd | B2f fdB | BcB fdB |
d2g f/g/af | e/f/ge d/e/fd | A2e ecA | ABA ecA :|]
T:Lasses of Berwick. Ru1.184
B:Rutherford's Country Dances Vol 1, 1756
Z:village music project, Steve Mansfield July 2015
M:6/8
L:1/8
W:Hay contrary sides .| Hay on your own sides :|
W:Cross over two Couple .|. Lead up to the top foot
W:it and cast off :|
Q:3/8=90
K:D
|:A, | D>ED dA=c | BAG FGA | BAG FED | CEE E2F |
D>ED dA=c | BAG FGA | BAG F/G/AG | FDD D2 :|
|: A | d>ed dBG | Bdd d2A | d>ed dBG | Bee e2e |
d>ed dBG | g>ag f2e | f2e f/g/ae | fdd d2 :|]
